X: 14399
T: Galway Belle, The
R: polka
M: 2/4
K: Edorian
E>F GA|Be B2|A>F DF|AF DF|
E>F GA|Be B2|A>F DF|E2 E2|
E>F GA|Be B2|A>F DF|AF DF|
E>F GA|Be B2|A>F DF|E2 E2|
ee B2|ee B2|A>F DF|AF DF|
ee B2|ee B2|A>F DF|E2 E2|
ee B2|ee B2|A>F DF|AF DF|
E>F GA|Be B2|A>F DF|E2 E2|

